X:826
T:Zephyrs and Flora
C:Henry Playford Vol. II, 4th Ed., 1713
S:Colin Hume's website,  colinhume.com  - chords can also be printed below the stave.
Q:1/2=112
M:C|
L:1/8
K:G
P:A
|: d2 | "G"B2G2 B2d2 | "Em"g6 a2 | "G"b2g2 "D7"a2f2 | "G"gfga g2d2 | "G"B2G2 B2d2 | "Em"g6 a2 | "G"b2g2 "D7"a2f2 | "G"g4 z2 :|
P:B
|: d2 | "G"BcBc dcde | "G"B2G2 G4 | "Am"cdcd ede=f | "Am"c2A2 A4 | "D7"fgfg agab | "G"g2d2 "C"d2c2 | "G"BAGB "D7"A2F2 | "G"G4 z2 :|
